icon-themes/breeze_svg/cmd/sc_arrowshapes.corner-right-arrow.svg

<svg viewBox="0 0 16 16" xmlns="http://www.w3.org/2000/svg"><path d="m3 2v8 2h7v2l3-3-3-3v2h-5v-8z" fill="#4d4d4d"/></svg>

<svg xmlns="http://www.w3.org/2000/svg" viewBox="0 0 16 16">
 <path 
     style="fill:#4d4d4d" 
     d="M 3 2 L 3 10 L 3 12 L 10 12 L 10 14 L 13 11 L 10 8 L 10 10 L 5 10 L 5 2 L 3 2 z "
     />
 </svg>
